X: 823
T: Rickett's Hornpipe
B: jims roots
M:4/4
L:1/8
R: hornpipe
Q: 1/4=100
K:Dmaj
V:1 
%Z: Erin Hennessy
%S: <a href="http://thesession.org/tunes/272#setting31985" rel="nofollow">http://thesession.org/tunes/272#setting31985</a>
Ac|"D" dcdA FAdf|"A" edcB A2g2| "D" fgaf "G" gfed | "A" edcB Agfe|
"D" dcdA FAdf| "A" edcB A2 g2| "D" fafd"A"egec| "D" d2 f2 d2:|
|:fg|"D" afaf d2 ga | "G"bgbg e2 fg|"D" afba gfed |"A" edcB Agfe|
"G"dcdA "D"FAdf|"A" edcB A2g2 |"D"fafd"A"egec|"D" d2 f2 d2:|
% abcbook-tune_id 6298c27976220ce4082a2b00


% abcbook-boost 0
% abcbook-tablature 
% abcbook-transpose 
% abcbook-lastupdated 1654178426890
% abcbook-soundfonts 
% abcbook-repeats 1


